images/modal-bgi.svg

<svg width="850" height="648" viewBox="0 0 850 648" fill="none" xmlns="http://www.w3.org/2000/svg">
<g opacity="0.1">
<path d="M146.514 122.568C144.506 107.592 135.138 94.8415 121.454 88.4607C107.77 82.0799 91.981 83.1004 79.2195 91.189L48.4662 110.678C43.364 113.911 39.5179 118.602 37.3448 124.24C35.1712 129.879 34.8759 135.936 36.4883 141.76C38.105 147.581 41.4791 152.618 46.2455 156.327C51.012 160.035 56.7247 162.064 62.764 162.197L63.1692 162.204C78.314 162.647 92.6998 169.416 102.696 180.816C105.274 183.757 108.375 186.081 111.844 187.699C113.729 188.578 115.727 189.248 117.806 189.696C123.71 190.965 129.738 190.312 135.238 187.808C140.735 185.304 145.187 181.183 148.111 175.893C151.035 170.602 152.156 164.641 151.354 158.652L146.514 122.568Z" fill="white"/>
<path d="M66.7936 84.5339C73.0074 84.9684 78.9904 82.5912 83.6404 77.8393C88.0661 73.3179 90.7577 67.1387 91.2188 60.438C91.6769 53.7406 89.8562 47.2499 86.0925 42.1599C82.1384 36.8143 76.5391 33.6332 70.3323 33.2065C57.85 32.3377 46.8964 43.1452 45.9134 57.3052C45.1442 68.5818 50.931 78.625 59.6258 82.6793C61.8459 83.7145 64.2558 84.359 66.7936 84.5339Z" fill="white"/>
<path d="M111.174 78.728C124.597 84.9868 141.174 77.9474 148.127 63.0358C155.082 48.1204 149.819 30.8944 136.397 24.6356C122.976 18.3774 106.399 25.4198 99.4437 40.3351C92.4906 55.2467 97.7528 72.4697 111.174 78.728Z" fill="white"/>
<path d="M149.329 105.17L149.33 105.171C151.043 106.799 152.962 108.091 155.025 109.053C164.651 113.542 177.339 110.825 186 101.596C190.987 96.2842 193.945 89.5879 194.327 82.7419C194.729 75.5756 192.299 69.1046 187.483 64.5195C182.665 59.9338 176.113 57.8545 169.033 58.6617C162.268 59.4328 155.798 62.7844 150.814 68.0975C140.298 79.3047 139.632 95.9355 149.329 105.17Z" fill="white"/>
<path d="M201.84 125.413L201.838 125.407C195.822 114.422 180.781 110.954 168.306 117.679C155.835 124.412 150.573 138.827 156.573 149.811C158.76 153.818 162.15 156.827 166.179 158.705C173.2 161.98 182.168 161.823 190.107 157.548C202.576 150.814 207.84 136.399 201.84 125.413Z" fill="white"/>
</g>
<g opacity="0.1">
<path d="M363.709 125.411C366.794 135.116 374.504 142.483 384.334 145.117C394.164 147.751 404.524 145.226 412.048 138.363L430.18 121.828C433.188 119.085 435.192 115.521 435.975 111.525C436.758 107.527 436.245 103.472 434.493 99.7956C432.739 96.121 429.91 93.1726 426.312 91.2687C422.714 89.3649 418.685 88.6866 414.661 89.3057L414.391 89.3482C404.286 90.8266 393.946 88.0172 385.977 81.6199C383.921 79.9699 381.591 78.7898 379.099 78.1222C377.744 77.7592 376.34 77.548 374.908 77.4941C370.84 77.3431 366.916 78.482 363.558 80.7878C360.203 83.0932 357.73 86.3492 356.408 90.203C355.086 94.0569 355.04 98.1445 356.273 102.026L363.709 125.411Z" fill="white"/>
<path d="M421.075 141.326C416.899 141.765 413.206 144.043 410.676 147.742C408.268 151.261 407.204 155.677 407.682 160.179C408.162 164.678 410.13 168.773 413.224 171.711C416.474 174.796 420.563 176.253 424.733 175.809C433.12 174.925 439.125 166.47 438.121 156.956C437.311 149.381 432.295 143.392 426.049 141.718C424.455 141.291 422.78 141.145 421.075 141.326Z" fill="white"/>
<path d="M392.296 150.374C382.655 147.79 372.475 154.403 369.605 165.114C366.734 175.828 372.243 186.646 381.885 189.23C391.526 191.813 401.705 185.199 404.575 174.485C407.446 163.773 401.937 152.957 392.296 150.374Z" fill="white"/>
<path d="M363.876 137.288L363.875 137.288C362.548 136.407 361.123 135.774 359.641 135.377C352.726 133.524 344.623 136.813 339.954 143.952C337.265 148.061 336.086 152.852 336.633 157.441C337.205 162.245 339.576 166.255 343.309 168.735C347.043 171.215 351.635 171.829 356.241 170.464C360.64 169.161 364.543 166.179 367.229 162.069C372.898 153.399 371.394 142.283 363.876 137.288Z" fill="white"/>
<path d="M326.653 129.997L326.655 130.001C331.934 136.588 342.323 137.13 349.817 131.206C357.306 125.278 359.112 115.093 353.845 108.505C351.924 106.101 349.322 104.501 346.428 103.726C341.384 102.374 335.45 103.527 330.681 107.294C323.192 113.223 321.385 123.407 326.653 129.997Z" fill="white"/>
</g>
<g opacity="0.1">
<path d="M42.3892 403.037C41.738 388.901 34.0389 376.239 21.7924 369.169C9.54597 362.098 -5.26878 361.762 -17.8357 368.266L-48.1199 383.939C-53.1442 386.539 -57.1157 390.602 -59.6034 395.685C-62.0918 400.768 -62.8618 406.396 -61.8329 411.961C-60.7997 417.524 -58.0628 422.499 -53.9185 426.348C-49.7741 430.198 -44.6097 432.557 -38.9858 433.174L-38.6084 433.214C-24.5142 434.863 -11.6448 442.353 -3.24936 453.806C-1.08336 456.76 1.61982 459.182 4.72403 460.974C6.41172 461.949 8.22025 462.737 10.1238 463.325C15.529 464.99 21.2059 464.873 26.5421 462.986C31.8754 461.098 36.3655 457.617 39.5258 452.92C42.6861 448.222 44.2184 442.753 43.959 437.099L42.3892 403.037Z" fill="white"/>
<path d="M-28.8868 361.043C-23.1247 361.955 -17.3485 360.226 -12.622 356.172C-8.12372 352.315 -5.10795 346.769 -4.13072 340.555C-3.15654 334.344 -4.32534 328.139 -7.4214 323.083C-10.6742 317.772 -15.6387 314.347 -21.3949 313.442C-32.9701 311.613 -44.0721 320.802 -46.1453 333.933C-47.7836 344.392 -43.2043 354.234 -35.423 358.727C-33.4362 359.874 -31.2403 360.672 -28.8868 361.043Z" fill="white"/>
<path d="M12.996 359.249C25.0084 366.184 41.0497 360.97 48.7545 347.625C56.4611 334.276 52.9576 317.775 40.9453 310.839C28.934 303.905 12.8926 309.122 5.18589 322.47C-2.51886 335.815 0.984785 352.314 12.996 359.249Z" fill="white"/>
<path d="M46.4359 387.034L46.437 387.035C47.9017 388.694 49.5871 390.056 51.4332 391.122C60.0481 396.096 72.1078 394.597 80.9423 386.694C86.0286 382.145 89.3346 376.138 90.2506 369.782C91.2107 363.129 89.4713 356.893 85.3522 352.222C81.232 347.55 75.2885 345.075 68.6163 345.25C62.2424 345.417 55.9319 348.016 50.8478 352.567C40.121 362.164 38.1419 377.627 46.4359 387.034Z" fill="white"/>
<path d="M93.7775 410.208L93.7761 410.202C89.06 399.462 75.31 394.999 63.1213 400.254C50.9366 405.518 44.8495 418.538 49.5508 429.276C51.2645 433.193 54.1815 436.277 57.7871 438.359C64.0714 441.987 72.4506 442.573 80.2068 439.232C92.3904 433.968 98.4785 420.948 93.7775 410.208Z" fill="white"/>
</g>
<g opacity="0.1">
<path d="M852.926 540.411C843.24 535.398 831.823 535.658 822.385 541.107C812.948 546.556 807.014 556.314 806.513 567.207L805.304 593.459C805.103 597.814 806.284 602.03 808.718 605.649C811.152 609.269 814.611 611.951 818.722 613.409C822.833 614.863 827.208 614.953 831.374 613.67C835.54 612.388 839.105 609.85 841.683 606.334L841.855 606.098C848.387 597.327 858.345 591.624 869.224 590.433C872.03 590.126 874.688 589.255 877.081 587.874C878.381 587.123 879.604 586.22 880.73 585.176C883.924 582.21 886.033 578.376 886.83 574.087C887.625 569.801 887.032 565.463 885.115 561.543C883.198 557.624 880.137 554.494 876.264 552.488L852.926 540.411Z" fill="white"/>
<path d="M797.433 571.8C800.263 568.306 801.334 563.785 800.45 559.068C799.609 554.579 797.07 550.43 793.299 547.383C789.529 544.34 784.937 542.729 780.37 542.847C775.572 542.972 771.373 544.965 768.551 548.458C762.87 555.479 764.725 566.429 772.69 572.873C779.039 577.996 787.372 578.732 793.369 575.27C794.9 574.386 796.279 573.228 797.433 571.8Z" fill="white"/>
<path d="M812.375 543.156C821.632 537.811 824.333 525.095 818.395 514.811C812.456 504.524 800.093 500.504 790.835 505.848C781.579 511.193 778.88 523.909 784.819 534.196C790.757 544.481 803.118 548.5 812.375 543.156Z" fill="white"/>
<path d="M843.804 531.545L843.805 531.544C845.477 531.206 847.035 530.606 848.458 529.785C855.097 525.952 858.743 517.325 856.873 508.383C855.797 503.236 853.062 498.715 849.173 495.655C845.102 492.45 840.27 491.208 835.565 492.157C830.86 493.107 826.918 496.12 824.463 500.641C822.119 504.959 821.422 510.172 822.5 515.319C824.772 526.176 834.329 533.455 843.804 531.545Z" fill="white"/>
<path d="M877.512 508.878L877.508 508.877C868.523 507.886 860.245 515.343 859.056 525.503C857.875 535.664 864.219 544.743 873.197 545.743C876.472 546.109 879.654 545.35 882.432 543.746C887.275 540.95 890.895 535.583 891.654 529.119C892.835 518.959 886.492 509.879 877.512 508.878Z" fill="white"/>
</g>
<g opacity="0.1">
<path d="M824.729 57.521C815.874 51.082 804.503 49.6137 794.313 53.5949C784.122 57.5761 776.759 66.3634 774.614 77.0994L769.446 102.97C768.588 107.262 769.123 111.625 770.992 115.585C772.86 119.545 775.888 122.73 779.747 124.798C783.607 126.863 787.936 127.614 792.264 126.971C796.593 126.327 800.514 124.348 803.605 121.248L803.811 121.039C811.62 113.322 822.365 109.167 833.342 109.631C836.173 109.75 838.943 109.287 841.526 108.278C842.931 107.73 844.281 107.018 845.556 106.152C849.175 103.692 851.848 100.205 853.287 96.0693C854.724 91.9351 854.791 87.54 853.481 83.3604C852.17 79.1808 849.606 75.6114 846.066 73.0357L824.729 57.521Z" fill="white"/>
<path d="M764.909 80.2844C768.245 77.2444 769.992 72.9189 769.827 68.1041C769.671 63.5223 767.778 59.0201 764.497 55.4263C761.215 51.8356 756.902 49.5429 752.351 48.9696C747.57 48.3681 743.102 49.7119 739.773 52.7521C733.073 58.8608 733.259 70.0093 740.19 77.6084C745.716 83.6529 753.876 85.6436 760.351 83.114C762.004 82.4681 763.547 81.5272 764.909 80.2844Z" fill="white"/>
<path d="M784.068 54.1151C794.063 50.21 798.666 37.9986 794.328 26.8939C789.989 15.7865 778.326 9.92745 768.33 13.8325C758.336 17.7372 753.734 29.9501 758.074 41.0575C762.412 52.1622 774.073 58.0198 784.068 54.1151Z" fill="white"/>
<path d="M817.016 47.3421L817.017 47.3417C818.727 47.259 820.365 46.899 821.901 46.2989C829.069 43.4983 833.993 35.4881 833.488 26.331C833.198 21.0595 831.167 16.1592 827.77 12.5338C824.214 8.73802 819.606 6.77491 814.794 7.00574C809.98 7.23692 805.612 9.63138 802.493 13.747C799.513 17.6785 798.033 22.747 798.325 28.0177C798.939 39.137 807.324 47.8059 817.016 47.3421Z" fill="white"/>
<path d="M853.898 29.9421L853.894 29.9405C845.126 27.5986 835.784 33.7481 833.068 43.652C830.359 53.5574 835.283 63.5277 844.042 65.8772C847.237 66.7353 850.509 66.4634 853.51 65.2912C858.739 63.2483 863.143 58.4693 864.873 52.1689C867.581 42.2638 862.659 32.2932 853.898 29.9421Z" fill="white"/>
</g>
<g opacity="0.1">
<path d="M395.426 600.837C382.952 594.381 368.247 594.716 356.092 601.734C343.936 608.752 336.294 621.319 335.649 635.35L334.092 669.16C333.833 674.769 335.354 680.199 338.489 684.86C341.624 689.522 346.079 692.977 351.373 694.854C356.668 696.727 362.303 696.844 367.669 695.191C373.034 693.539 377.625 690.271 380.946 685.743L381.168 685.438C389.581 674.142 402.406 666.796 416.417 665.264C420.031 664.868 423.455 663.746 426.536 661.967C428.211 661 429.786 659.837 431.236 658.492C435.35 654.672 438.067 649.734 439.093 644.211C440.117 638.69 439.353 633.102 436.884 628.055C434.415 623.007 430.473 618.975 425.485 616.392L395.426 600.837Z" fill="white"/>
<path d="M323.955 641.264C327.599 636.764 328.979 630.941 327.84 624.866C326.757 619.085 323.487 613.741 318.63 609.817C313.775 605.897 307.861 603.822 301.978 603.974C295.799 604.135 290.391 606.702 286.757 611.201C279.44 620.243 281.829 634.347 292.087 642.646C300.264 649.244 310.998 650.193 318.721 645.734C320.693 644.595 322.469 643.104 323.955 641.264Z" fill="white"/>
<path d="M343.199 604.372C355.122 597.488 358.601 581.112 350.953 567.866C343.304 554.617 327.38 549.439 315.457 556.322C303.535 563.206 300.059 579.584 307.708 592.833C315.356 606.079 331.277 611.255 343.199 604.372Z" fill="white"/>
<path d="M383.679 589.418L383.68 589.417C385.833 588.982 387.84 588.209 389.673 587.151C398.223 582.214 402.92 571.104 400.511 559.587C399.125 552.958 395.603 547.135 390.593 543.193C385.351 539.066 379.127 537.466 373.068 538.689C367.007 539.912 361.93 543.793 358.769 549.615C355.75 555.177 354.852 561.891 356.24 568.52C359.167 582.503 371.476 591.878 383.679 589.418Z" fill="white"/>
<path d="M427.093 560.224L427.088 560.223C415.515 558.947 404.854 568.551 403.323 581.637C401.801 594.723 409.972 606.417 421.535 607.705C425.753 608.176 429.851 607.199 433.43 605.132C439.667 601.531 444.329 594.619 445.307 586.294C446.828 573.208 438.658 561.514 427.093 560.224Z" fill="white"/>
</g>
</svg>

<svg width="850" height="648" fill="none" xmlns="http://www.w3.org/2000/svg"><g opacity=".1" fill="#fff"><path d="M146.514 122.568c-2.008-14.976-11.376-27.727-25.06-34.107-13.684-6.381-29.473-5.36-42.234 2.728l-30.754 19.489a27.766 27.766 0 0 0-11.121 13.562 27.768 27.768 0 0 0-.857 17.52 27.731 27.731 0 0 0 9.758 14.567 27.706 27.706 0 0 0 16.518 5.87l.405.007c15.145.443 29.53 7.212 39.527 18.612a27.725 27.725 0 0 0 9.148 6.883 28.107 28.107 0 0 0 5.962 1.997 27.718 27.718 0 0 0 17.432-1.888 27.755 27.755 0 0 0 12.873-11.915 27.773 27.773 0 0 0 3.243-17.241l-4.84-36.084ZM66.794 84.534c6.213.434 12.196-1.943 16.846-6.695 4.426-4.521 7.118-10.7 7.579-17.401.458-6.697-1.363-13.188-5.126-18.278-3.955-5.346-9.554-8.527-15.76-8.953-12.483-.87-23.437 9.938-24.42 24.098-.769 11.277 5.018 21.32 13.713 25.374a20.195 20.195 0 0 0 7.168 1.855ZM111.174 78.728c13.423 6.259 30-.78 36.953-15.692 6.955-14.916 1.692-32.142-11.73-38.4-13.421-6.259-29.998.784-36.953 15.7-6.953 14.91-1.691 32.134 11.73 38.392ZM149.329 105.17l.001.001a21.323 21.323 0 0 0 5.695 3.882c9.626 4.489 22.314 1.772 30.975-7.457 4.987-5.312 7.945-12.008 8.327-18.854.402-7.166-2.028-13.637-6.844-18.223-4.818-4.585-11.37-6.665-18.45-5.857-6.765.77-13.235 4.122-18.219 9.435-10.516 11.208-11.182 27.839-1.485 37.073ZM201.84 125.413l-.002-.006c-6.016-10.985-21.057-14.453-33.532-7.728-12.471 6.733-17.733 21.148-11.733 32.132 2.187 4.007 5.577 7.016 9.606 8.894 7.021 3.275 15.989 3.118 23.928-1.157 12.469-6.734 17.733-21.149 11.733-32.135Z"/></g><g opacity=".1" fill="#fff"><path d="M363.709 125.411c3.085 9.705 10.795 17.072 20.625 19.706 9.83 2.634 20.19.109 27.714-6.754l18.132-16.535a18.72 18.72 0 0 0 5.795-10.303c.783-3.998.27-8.053-1.482-11.73a18.686 18.686 0 0 0-8.181-8.526 18.667 18.667 0 0 0-11.651-1.963l-.27.042a36.95 36.95 0 0 1-28.414-7.728 18.692 18.692 0 0 0-11.069-4.126 18.685 18.685 0 0 0-11.35 3.294 18.71 18.71 0 0 0-7.15 9.415 18.717 18.717 0 0 0-.135 11.823l7.436 23.385ZM421.075 141.326c-4.176.439-7.869 2.717-10.399 6.416-2.408 3.519-3.472 7.935-2.994 12.437.48 4.499 2.448 8.594 5.542 11.532 3.25 3.085 7.339 4.542 11.509 4.098 8.387-.884 14.392-9.339 13.388-18.853-.81-7.575-5.826-13.564-12.072-15.238a13.61 13.61 0 0 0-4.974-.392ZM392.296 150.374c-9.641-2.584-19.821 4.029-22.691 14.74-2.871 10.714 2.638 21.532 12.28 24.116 9.641 2.583 19.82-4.031 22.69-14.745 2.871-10.712-2.638-21.528-12.279-24.111ZM363.876 137.288h-.001a14.34 14.34 0 0 0-4.234-1.911c-6.915-1.853-15.018 1.436-19.687 8.575-2.689 4.109-3.868 8.9-3.321 13.489.572 4.804 2.943 8.814 6.676 11.294 3.734 2.48 8.326 3.094 12.932 1.729 4.399-1.303 8.302-4.285 10.988-8.395 5.669-8.67 4.165-19.786-3.353-24.781ZM326.653 129.997l.002.004c5.279 6.587 15.668 7.129 23.162 1.205 7.489-5.928 9.295-16.113 4.028-22.701-1.921-2.404-4.523-4.004-7.417-4.779-5.044-1.352-10.978-.199-15.747 3.568-7.489 5.929-9.296 16.113-4.028 22.703Z"/></g><g opacity=".1" fill="#fff"><path d="M42.39 403.037c-.652-14.136-8.351-26.798-20.598-33.868-12.246-7.071-27.06-7.407-39.628-.903l-30.284 15.673a26.005 26.005 0 0 0-11.483 11.746 26.005 26.005 0 0 0-2.23 16.276 25.968 25.968 0 0 0 7.914 14.387 25.94 25.94 0 0 0 14.933 6.826l.378.04A51.341 51.341 0 0 1-3.25 453.806a25.972 25.972 0 0 0 7.973 7.168 26.299 26.299 0 0 0 5.4 2.351 25.969 25.969 0 0 0 16.418-.339 25.999 25.999 0 0 0 12.984-10.066 26.008 26.008 0 0 0 4.433-15.821l-1.57-34.062ZM-28.887 361.043c5.762.912 11.538-.817 16.265-4.871 4.498-3.857 7.514-9.403 8.491-15.617.974-6.211-.194-12.416-3.29-17.472-3.253-5.311-8.218-8.736-13.974-9.641-11.575-1.829-22.677 7.36-24.75 20.491-1.639 10.459 2.94 20.301 10.722 24.794a18.93 18.93 0 0 0 6.536 2.316ZM12.996 359.249c12.012 6.935 28.054 1.721 35.758-11.624 7.707-13.349 4.204-29.85-7.809-36.786-12.011-6.934-28.052-1.717-35.76 11.631-7.704 13.345-4.2 29.844 7.811 36.779ZM46.436 387.034l.001.001a19.957 19.957 0 0 0 4.996 4.087c8.615 4.974 20.675 3.475 29.51-4.428 5.086-4.549 8.392-10.556 9.308-16.912.96-6.653-.78-12.889-4.899-17.56-4.12-4.672-10.064-7.147-16.736-6.972-6.374.167-12.684 2.766-17.768 7.317-10.727 9.597-12.706 25.06-4.412 34.467ZM93.778 410.208l-.002-.006c-4.716-10.74-18.466-15.203-30.655-9.948-12.184 5.264-18.272 18.284-13.57 29.022 1.713 3.917 4.63 7.001 8.236 9.083 6.284 3.628 14.664 4.214 22.42.873 12.183-5.264 18.272-18.284 13.57-29.024Z"/></g><g opacity=".1" fill="#fff"><path d="M852.926 540.411c-9.686-5.013-21.103-4.753-30.541.696-9.437 5.449-15.371 15.207-15.872 26.1l-1.209 26.252a20.038 20.038 0 0 0 3.414 12.19 20.041 20.041 0 0 0 10.004 7.76 20.013 20.013 0 0 0 12.652.261 19.984 19.984 0 0 0 10.309-7.336l.172-.236a39.574 39.574 0 0 1 27.369-15.665 20.022 20.022 0 0 0 7.857-2.559 20.31 20.31 0 0 0 3.649-2.698 20.015 20.015 0 0 0 6.1-11.089 20.038 20.038 0 0 0-1.715-12.544 20.047 20.047 0 0 0-8.851-9.055l-23.338-12.077ZM797.433 571.8c2.83-3.494 3.901-8.015 3.017-12.732-.841-4.489-3.38-8.638-7.151-11.685-3.77-3.043-8.362-4.654-12.929-4.536-4.798.125-8.997 2.118-11.819 5.611-5.681 7.021-3.826 17.971 4.139 24.415 6.349 5.123 14.682 5.859 20.679 2.397a14.578 14.578 0 0 0 4.064-3.47ZM812.375 543.156c9.257-5.345 11.958-18.061 6.02-28.345-5.939-10.287-18.302-14.307-27.56-8.963-9.256 5.345-11.955 18.061-6.016 28.348 5.938 10.285 18.299 14.304 27.556 8.96ZM843.804 531.545l.001-.001a15.379 15.379 0 0 0 4.653-1.759c6.639-3.833 10.285-12.46 8.415-21.402-1.076-5.147-3.811-9.668-7.7-12.728-4.071-3.205-8.903-4.447-13.608-3.498-4.705.95-8.647 3.963-11.102 8.484-2.344 4.318-3.041 9.531-1.963 14.678 2.272 10.857 11.829 18.136 21.304 16.226ZM877.512 508.878l-.004-.001c-8.985-.991-17.263 6.466-18.452 16.626-1.181 10.161 5.163 19.24 14.141 20.24 3.275.366 6.457-.393 9.235-1.997 4.843-2.796 8.463-8.163 9.222-14.627 1.181-10.16-5.162-19.24-14.142-20.241Z"/></g><g opacity=".1" fill="#fff"><path d="M824.729 57.521c-8.855-6.439-20.226-7.907-30.416-3.926-10.191 3.981-17.554 12.768-19.699 23.504l-5.168 25.871a20.115 20.115 0 0 0 1.546 12.615 20.119 20.119 0 0 0 8.755 9.213 20.092 20.092 0 0 0 12.517 2.173 20.073 20.073 0 0 0 11.341-5.723l.206-.209a39.725 39.725 0 0 1 29.531-11.408 20.102 20.102 0 0 0 12.214-3.479 20.085 20.085 0 0 0 7.731-10.083 20.116 20.116 0 0 0 .194-12.709 20.129 20.129 0 0 0-7.415-10.324L824.729 57.52ZM764.909 80.284c3.336-3.04 5.083-7.365 4.918-12.18-.156-4.582-2.049-9.084-5.33-12.678-3.282-3.59-7.595-5.883-12.146-6.456-4.781-.602-9.249.742-12.578 3.782-6.7 6.109-6.514 17.257.417 24.856 5.526 6.045 13.686 8.036 20.161 5.506a14.646 14.646 0 0 0 4.558-2.83ZM784.068 54.115c9.995-3.905 14.598-16.116 10.26-27.221-4.339-11.107-16.002-16.967-25.998-13.061-9.994 3.904-14.596 16.117-10.256 27.224 4.338 11.105 15.999 16.963 25.994 13.058ZM817.016 47.342h.001a15.43 15.43 0 0 0 4.884-1.043c7.168-2.8 12.092-10.81 11.587-19.968-.29-5.271-2.321-10.172-5.718-13.797-3.556-3.796-8.164-5.76-12.976-5.528-4.814.23-9.182 2.625-12.301 6.741-2.98 3.931-4.46 9-4.168 14.27.614 11.12 8.999 19.789 18.691 19.325ZM853.898 29.942l-.004-.002c-8.768-2.341-18.11 3.808-20.826 13.712-2.709 9.905 2.215 19.876 10.974 22.225 3.195.858 6.467.586 9.468-.586 5.229-2.043 9.633-6.822 11.363-13.122 2.708-9.905-2.214-19.876-10.975-22.227Z"/></g><g opacity=".1" fill="#fff"><path d="M395.426 600.837c-12.474-6.456-27.179-6.121-39.334.897-12.156 7.018-19.798 19.585-20.443 33.616l-1.557 33.81a25.805 25.805 0 0 0 4.397 15.7 25.811 25.811 0 0 0 12.884 9.994 25.772 25.772 0 0 0 16.296.337 25.748 25.748 0 0 0 13.277-9.448l.222-.305c8.413-11.296 21.238-18.642 35.249-20.174a25.785 25.785 0 0 0 10.119-3.297 26.1 26.1 0 0 0 4.7-3.475 25.774 25.774 0 0 0 7.857-14.281 25.805 25.805 0 0 0-2.209-16.156 25.815 25.815 0 0 0-11.399-11.663l-30.059-15.555ZM323.955 641.264c3.644-4.5 5.024-10.323 3.885-16.398-1.083-5.781-4.353-11.125-9.21-15.049-4.855-3.92-10.769-5.995-16.652-5.843-6.179.161-11.587 2.728-15.221 7.227-7.317 9.042-4.928 23.146 5.33 31.445 8.177 6.598 18.911 7.547 26.634 3.088a18.765 18.765 0 0 0 5.234-4.47ZM343.199 604.372c11.923-6.884 15.402-23.26 7.754-36.506-7.649-13.249-23.573-18.427-35.496-11.544-11.922 6.884-15.398 23.262-7.749 36.511 7.648 13.246 23.569 18.422 35.491 11.539ZM383.679 589.418l.001-.001a19.792 19.792 0 0 0 5.993-2.266c8.55-4.937 13.247-16.047 10.838-27.564-1.386-6.629-4.908-12.452-9.918-16.394-5.242-4.127-11.466-5.727-17.525-4.504-6.061 1.223-11.138 5.104-14.299 10.926-3.019 5.562-3.917 12.276-2.529 18.905 2.927 13.983 15.236 23.358 27.439 20.898ZM427.093 560.224l-.005-.001c-11.573-1.276-22.234 8.328-23.765 21.414-1.522 13.086 6.649 24.78 18.212 26.068 4.218.471 8.316-.506 11.895-2.573 6.237-3.601 10.899-10.513 11.877-18.838 1.521-13.086-6.649-24.78-18.214-26.07Z"/></g></svg>
